sequoia/src/components/Header/assets/user.svg

<svg width="25" height="24" viewBox="0 0 25 24" fill="none" xmlns="http://www.w3.org/2000/svg">
<path fill-rule="evenodd" clip-rule="evenodd" d="M12.8001 2.20001C10.1501 2.20001 8.00086 4.34772 8.00008 6.99857L8.00008 7.00001L8.00008 6.99713L8.00008 6.99857C7.99132 9.64062 10.127 11.7905 12.7689 11.8L12.7718 11.8H12.8001C15.4506 11.8 17.6 9.65053 17.6 7.00001C17.6 4.3485 15.4505 2.20001 12.8001 2.20001Z" fill="#ECECEC"/>
<path d="M7.45886 14.6023C8.87192 13.7373 10.7691 13.2 12.8 13.2C14.8196 13.2 16.7158 13.7321 18.1308 14.591C19.5162 15.4319 20.6 16.6983 20.6 18.2108C20.6 18.982 20.3118 19.6327 19.8101 20.1422C19.3283 20.6315 18.6783 20.9635 17.9739 21.1957C16.5719 21.6579 14.7156 21.8 12.8 21.8C10.8962 21.8 9.04077 21.6633 7.63708 21.2072C6.93207 20.9781 6.27973 20.6494 5.79551 20.1623C5.29087 19.6547 5 19.0041 5 18.2309C5 16.7212 6.07452 15.4496 7.45886 14.6023Z" fill="#ECECEC"/>
</svg>

<svg width="25" height="24" fill="none" xmlns="http://www.w3.org/2000/svg"><path fill-rule="evenodd" clip-rule="evenodd" d="M12.8 2.2A4.8 4.8 0 0 0 8 7c0 2.64 2.13 4.79 4.77 4.8h.03a4.8 4.8 0 0 0 0-9.6Z" fill="#ECECEC"/><path d="M7.46 14.6a10.4 10.4 0 0 1 5.34-1.4c2.02 0 3.92.53 5.33 1.4 1.39.83 2.47 2.1 2.47 3.61 0 .77-.29 1.42-.79 1.93-.48.5-1.13.82-1.84 1.06-1.4.46-3.25.6-5.17.6-1.9 0-3.76-.14-5.16-.6a4.54 4.54 0 0 1-1.84-1.04c-.5-.5-.8-1.16-.8-1.93 0-1.5 1.07-2.78 2.46-3.63Z" fill="#ECECEC"/></svg>
